X:656
T:Pigeon on the Gate, The
R:reel
H:See also #140, #141, #532, #653, #654, #655, #935
H:A Gm version of the Edor tune.
H:As played by Jerry Holland, Dermot Byrne, etc
Z:id:hn-reel-656
M:C|
K:Gdor
dG~G2 dcAc | d2de dcAB | cF~F2 cFAB | c2cf dcAc |
dG~G2 dcAc | d2de dcAG | FAcf abga | fdcA GABc :|
|: dg~g2 fagf | dgga bgaf | dc~c2 =Bcde | f2eg fdcA |
dg~g2 fagf | dgga bgaf | dcde fgfd |1 cAFA GABc :|2 cAFA G3c ||
P:variations
|: dG(3GGG {e}dcAc | d2d_e dcAB | cF(3FFF cFAB | c2cf dcBc |
dG(3GGG {e}dcAc | d2d_e dcAG | FAcf afga | fdcA GABc :|
|: dg (3ggg fagf | dgga bgaf | dcd=e fgfd | cAf2 fgaf |
dg (3ggg fagf | dgga bgaf | dcd=e fgfd |1 cAFA GABc :|2 cAFA G3c ||

